X: 16
M:6/8
L:1/8
K:D
|:d|"tr"cBA cec|dBB "tr"B2 d|"tr"cBA cec|ABA A2 d|
"tr"cBA cec|dBB B2 d|"tr"cBA dAF|ABA A2:|
|:G|"tr"F2 d "tr"F2 d|B2 B Bcd|"tr"F2 d "tr"F2 d|A2 A A2 G|
"tr"F2 d "tr"F2 d|B2 B Bcd|"tr"cBA dAF|ABA A2:||

